X:186
R:Polska
T:Polska från Sandhem (SVL Västergötland 186)
N:Polska efter Karl Ljungström efter Karl Johansson
B:Svenska Låtar Västergötland
O:Sandhem, Västergötland
N:Finns på skivan Månsing med Hans Kennemark och Jenny Gustavsson
M:3/4
L:1/8
K:D
|: ((3edc d2) A2 | B>A F2 D2 | ED CD EF | GA Bc d2 |
((3edc d2) A2 | B>A F2 D2 | ED CD EF | (G/E/)C/C/ D4 :|
|: ED CD EF | ((3GFE F4) | ED CD EF | (G/F/)(F/G/ A4) |
AG F2 d2 | ((3cdc B4) | BA GE CE | (3.C.C.C [DD,]4 :|

